symbolic/status/network-cellular-hspa-symbolic.svg

<svg xmlns="http://www.w3.org/2000/svg" width="16" height="16" version="1.1">
 <path style="fill:#323a41" d="M 3 1 C 1.892 1 1 1.892 1 3 L 1 13 C 1 14.108 1.892 15 3 15 L 13 15 C 14.108 15 15 14.108 15 13 L 15 3 C 15 1.892 14.108 1 13 1 L 3 1 z M 4 3 L 6 3 L 6 7 L 10 7 L 10 3 L 12 3 L 12 13 L 10 13 L 10 9 L 6 9 L 6 13 L 4 13 L 4 3 z"/>
</svg>

<svg xmlns="http://www.w3.org/2000/svg" width="16" height="16" enable-background="new"><defs><filter id="a" color-interpolation-filters="sRGB"><feBlend mode="darken" in2="BackgroundImage"/></filter></defs><path d="M3 1S1 1 1 3.063V13c0 2 2 2 2 2h10c2 0 2-2 2-2V3s0-2-2-2zm3 2v4h4V3h2v10h-2V9H6v4H4V3z" color="#5d656b" fill="#5d656b"/></svg>
